flaticon/pins-and-locations/pin-32.svg

<svg xmlns="http://www.w3.org/2000/svg" width="32" height="32" viewBox="0 0 24 24">
    <path d="M 17.199219 5.199219 C 17.199219 2.320312 14.878906 0 12 0 C 9.121094 0 6.800781 2.320312 6.800781 5.199219 C 6.800781 7.371094 8.117188 9.222656 10 10.003906 L 10 11.601562 C 10 11.839844 10.160156 12 10.398438 12 L 10.4375 12 L 11.601562 23.640625 C 11.640625 23.839844 11.800781 24 12 24 C 12.199219 24 12.359375 23.839844 12.398438 23.640625 L 13.5625 12 L 13.601562 12 C 13.839844 12 14 11.839844 14 11.601562 L 14 10.003906 C 15.882812 9.222656 17.199219 7.371094 17.199219 5.199219 Z M 12 19.601562 L 11.238281 12 L 12.761719 12 Z M 13.199219 10.28125 L 13.199219 11.199219 L 10.800781 11.199219 L 10.800781 10.28125 C 10.863281 10.289062 10.921875 10.292969 10.976562 10.300781 C 11.308594 10.367188 11.648438 10.398438 12 10.398438 C 12.351562 10.398438 12.691406 10.367188 13.023438 10.300781 C 13.078125 10.292969 13.136719 10.289062 13.199219 10.28125 Z M 12.246094 9.59375 C 12.230469 9.59375 12.21875 9.59375 12.207031 9.59375 C 12.179688 9.597656 12.152344 9.597656 12.121094 9.597656 C 12.113281 9.597656 12.105469 9.597656 12.097656 9.597656 C 12.066406 9.597656 12.03125 9.601562 12 9.601562 C 11.964844 9.601562 11.933594 9.597656 11.902344 9.597656 C 11.894531 9.597656 11.886719 9.597656 11.878906 9.597656 C 11.847656 9.597656 11.820312 9.597656 11.792969 9.59375 C 11.78125 9.59375 11.769531 9.59375 11.753906 9.59375 C 9.429688 9.46875 7.601562 7.558594 7.601562 5.199219 C 7.601562 2.761719 9.558594 0.800781 12 0.800781 C 14.441406 0.800781 16.398438 2.761719 16.398438 5.199219 C 16.398438 7.558594 14.570312 9.46875 12.246094 9.59375 Z M 12.246094 9.59375"/>
    <path d="M 12 1.601562 C 10 1.601562 8.398438 3.199219 8.398438 5.199219 C 8.398438 5.441406 8.558594 5.601562 8.800781 5.601562 C 9.039062 5.601562 9.199219 5.441406 9.199219 5.199219 C 9.199219 3.640625 10.441406 2.398438 12 2.398438 C 12.238281 2.398438 12.398438 2.238281 12.398438 2 C 12.398438 1.761719 12.238281 1.601562 12 1.601562 Z M 12 1.601562"/>
</svg>

<svg xmlns="http://www.w3.org/2000/svg" width="32" height="32" viewBox="0 0 24 24">
    <path d="M17.2 5.2A5.19 5.19 0 0 0 12 0a5.19 5.19 0 0 0-5.2 5.2 5.188 5.188 0 0 0 3.2 4.804v1.598c0 .238.16.398.398.398h.04l1.164 11.64c.039.2.199.36.398.36.2 0 .36-.16.398-.36L13.563 12h.039c.238 0 .398-.16.398-.398v-1.598a5.188 5.188 0 0 0 3.2-4.805zM12 19.601L11.238 12h1.524zm1.2-9.32v.917h-2.4v-.918c.063.008.122.012.177.02.332.066.671.097 1.023.097.352 0 .691-.03 1.023-.097.055-.008.114-.012.176-.02zm-.954-.688h-.039c-.027.004-.055.004-.086.004h-.023c-.032 0-.067.004-.098.004-.035 0-.066-.004-.098-.004h-.023c-.031 0-.059 0-.086-.004h-.04a4.384 4.384 0 0 1-4.151-4.395A4.385 4.385 0 0 1 12 .801a4.385 4.385 0 0 1 4.398 4.398c0 2.36-1.828 4.27-4.152 4.395zm0 0"/>
    <path d="M12 1.602c-2 0-3.602 1.597-3.602 3.597 0 .242.16.403.403.403.238 0 .398-.16.398-.403 0-1.558 1.242-2.8 2.801-2.8.238 0 .398-.16.398-.399 0-.238-.16-.398-.398-.398zm0 0"/>
</svg>
